X:8
T:reel de Bergerville
M:4/4
K:D
e3e edef|gfgab2B2|e3e edef|gagfe2B2|e3e edef|gfgab2B2|e3e edef|1gagfe2B2
:||2gagfe2d2||d2edB2d2|gfgab2d2|d2edB2d2|gdBGA2d2|d2edB2d2|gfgab2d2|d2ed
B2d2|1agfag2d2:||2agfag4||
